img/email.svg

<svg width="76" height="77" viewBox="0 0 76 77" fill="none" xmlns="http://www.w3.org/2000/svg">
<path fill-rule="evenodd" clip-rule="evenodd" d="M37.9998 76.8745C17.013 76.8745 -0.000183105 59.8613 -0.000183105 38.8745C-0.000183105 17.8877 17.013 0.874512 37.9998 0.874512C58.9866 0.874512 75.9998 17.8877 75.9998 38.8745C75.9998 59.8613 58.9866 76.8745 37.9998 76.8745ZM38.5293 36.7418C41.6407 36.7418 56.7693 28.2345 56.7693 28.2345L56.7936 26.7145C56.7936 25.0364 55.4317 23.6745 53.749 23.6745H23.3095C21.6284 23.6745 20.2665 25.0364 20.2665 26.7145V28.0688C20.2665 28.0688 35.5607 36.7418 38.5293 36.7418ZM20.2908 32.7945C20.2893 32.7945 35.5607 40.9218 38.5293 40.9218C41.7836 40.9218 56.7693 32.7945 56.7693 32.7945L56.7936 51.0345C56.7936 52.7126 55.4317 54.0745 53.749 54.0745H23.3095C21.6299 54.0745 20.2665 52.7126 20.2665 51.0345L20.2908 32.7945Z" fill="#FD848D"/>
</svg>

<svg width="76" height="77" fill="none" xmlns="http://www.w3.org/2000/svg"><path fill-rule="evenodd" clip-rule="evenodd" d="M38 76.874c-20.987 0-38-17.013-38-38 0-20.986 17.013-38 38-38s38 17.014 38 38c0 20.987-17.013 38-38 38zm.53-40.132c3.11 0 18.24-8.507 18.24-8.507l.024-1.52a3.042 3.042 0 00-3.045-3.04h-30.44a3.042 3.042 0 00-3.043 3.04v1.354s15.295 8.673 18.263 8.673zm-18.24-3.947s15.27 8.127 18.24 8.127c3.254 0 18.24-8.127 18.24-8.127l.024 18.24a3.042 3.042 0 01-3.045 3.04h-30.44a3.043 3.043 0 01-3.043-3.04l.025-18.24z" fill="#FD848D"/></svg>
